alpha-s-circle-outline.svg

<svg fill="currentColor" viewBox="0 0 24 24"><path d="M11 7h4v2h-4v2h2a2 2 0 0 1 2 2v2a2 2 0 0 1-2 2H9v-2h4v-2h-2a2 2 0 0 1-2-2V9a2 2 0 0 1 2-2m1-5a10 10 0 0 1 10 10 10 10 0 0 1-10 10A10 10 0 0 1 2 12 10 10 0 0 1 12 2m0 2a8 8 0 0 0-8 8 8 8 0 0 0 8 8 8 8 0 0 0 8-8 8 8 0 0 0-8-8"/></svg>

<svg  viewBox="0 0 24 24" fill="currentColor"><path  d="M11,7H15V9H11V11H13A2,2 0 0,1 15,13V15A2,2 0 0,1 13,17H9V15H13V13H11A2,2 0 0,1 9,11V9A2,2 0 0,1 11,7M12,2A10,10 0 0,1 22,12A10,10 0 0,1 12,22A10,10 0 0,1 2,12A10,10 0 0,1 12,2M12,4A8,8 0 0,0 4,12A8,8 0 0,0 12,20A8,8 0 0,0 20,12A8,8 0 0,0 12,4Z"/></svg>
